X: 1
T: the Mason's Apron
O: Ross 1780
N: In most old collections.
B: BSFC Session Tune Book 2016 p.19
B: Robert Ross "A Choice Collection of Scots Reels or Country Dances", 1780 as "The Mason Laddie"
B: Gow "Complete Repository", Part 2, 1802; pgs. 24-25
R: reel
M: C|
L: 1/8
Z: 2019 John Chambers <jc:trillian.mit.edu>
K: A
(ef/g/) \
| "A"a2A2 ABAF | EFAB dcBA \
| "D"d2B2 BcBA | "E7"Bcde fefg |
| "A"a2A2 ABAF | EFAB dcBA \
| "D"B[cA][dB][ec] "Bm"[fd]efa | "E7"edcB "A"A2 :|
|: e2 \
| "A"(c/B/A) eA fAeA | (c/B/A) eA fedc \
| "Bm"dBfB gBfB | dBfB "E7"gfed |
y6 \
| "A"(c/B/A) eA fAeA | (c/B/A) eA fedc \
| "D"B[cA][dB][ec] "Bm"[fd]efa | "E7"A/A/A cB "A"A2 :|
